icon/lg/momentjs.svg

<?xml version="1.0" encoding="UTF-8" standalone="no"?>
<svg viewBox="0 0 256 256" version="1.1" xmlns="http://www.w3.org/2000/svg" xmlns:xlink="http://www.w3.org/1999/xlink" preserveAspectRatio="xMidYMid" height="1em" width="1em">
  <g fill-rule="evenodd">
    <path d="M128,256 C198.692448,256 256,198.692448 256,128 C256,57.307552 198.692448,0 128,0 C57.307552,0 0,57.307552 0,128 C0,198.692448 57.307552,256 128,256 L128,256 Z M128,236.8 C67.9114192,236.8 19.2,188.088581 19.2,128 C19.2,67.9114192 67.9114192,19.2 128,19.2 C188.088581,19.2 236.8,67.9114192 236.8,128 C236.8,188.088581 188.088581,236.8 128,236.8 L128,236.8 Z" fill="#376660"/>
    <path d="M128,230.4 C184.553958,230.4 230.4,184.553958 230.4,128 C230.4,71.4460416 184.553958,25.6 128,25.6 C71.4460416,25.6 25.6,71.4460416 25.6,128 C25.6,184.553958 71.4460416,230.4 128,230.4 L128,230.4 Z M128,32 C124.465378,32 121.6,34.8796721 121.6,38.443811 L121.6,121.6 L76.7809926,121.6 C73.2568678,121.6 70.4,124.440735 70.4,128 C70.4,131.534622 73.3162522,134.4 76.7705446,134.4 L134.4,134.4 L134.4,38.4055786 C134.4,34.8678752 131.559265,32 128,32 L128,32 Z" fill="#529990"/>
  </g>
</svg>

<svg width="256" height="256" xmlns="http://www.w3.org/2000/svg" preserveAspectRatio="xMidYMid"><g fill-rule="evenodd"><path d="M128 256c70.692 0 128-57.308 128-128C256 57.308 198.692 0 128 0 57.308 0 0 57.308 0 128c0 70.692 57.308 128 128 128Zm0-19.2c-60.089 0-108.8-48.711-108.8-108.8S67.911 19.2 128 19.2 236.8 67.911 236.8 128 188.089 236.8 128 236.8Z" fill="#376660"/><path d="M128 230.4c56.554 0 102.4-45.846 102.4-102.4 0-56.554-45.846-102.4-102.4-102.4C71.446 25.6 25.6 71.446 25.6 128c0 56.554 45.846 102.4 102.4 102.4ZM128 32c-3.535 0-6.4 2.88-6.4 6.444V121.6H76.781A6.375 6.375 0 0 0 70.4 128c0 3.535 2.916 6.4 6.37 6.4h57.63V38.406A6.387 6.387 0 0 0 128 32Z" fill="#529990"/></g></svg>
